X:87
T:Lord Who Throughout These Forty Days
%%stretchlast false
M:4/4
L:1/4
K:F clef=C1
"^I"[FAcf] [CGcf] "^V"[CGce] "^I"[FAcf] | "^vi"[DAfa] "^ii7¹"[B,dfg] "^V"[Cceg] "^I"[FAf] | [FAf] "^IV¹"[DBfb] "^I"[Fcfa] "^IV"[Bdf] | "^ii¹"[Bdg] "^III"[A_dea]3 | "^I"[Fcfa] [Fcfa] "^IV¹"[DBfb] "^V"[CGec'] | "^iii¹"[CAea] "^vi"[DAdf] "^V"[Cceg] "^I"[Fcfa] | [Fcfa] "^V"[Cceg] "^vi"[DAdf] "^ii7¹"[B,Gdf] | "^V"[CGce] "^I"[FAcf]3 |]
